svgs/telegram.svg

<svg width="192" height="192" viewBox="0 0 192 192" fill="none" xmlns="http://www.w3.org/2000/svg"><path d="M23.073 88.132s65.458-26.782 88.16-36.212c8.702-3.772 38.215-15.843 38.215-15.843s13.621-5.28 12.486 7.544c-.379 5.281-3.406 23.764-6.433 43.756-4.54 28.291-9.459 59.221-9.459 59.221s-.756 8.676-7.188 10.185c-6.433 1.509-17.027-5.281-18.919-6.79-1.513-1.132-28.377-18.106-38.214-26.404-2.649-2.263-5.676-6.79.378-12.071 13.621-12.447 29.891-27.913 39.728-37.72 4.54-4.527 9.081-15.089-9.837-2.264-26.864 18.483-53.35 35.835-53.35 35.835s-6.053 3.772-17.404.377c-11.351-3.395-24.594-7.921-24.594-7.921s-9.08-5.659 6.433-11.693Z" stroke="#000" stroke-width="12"/></svg>

<?xml version="1.0" encoding="UTF-8" standalone="no"?><svg xmlns:android="http://schemas.android.com/apk/res/android" height="192" width="192" xmlns="http://www.w3.org/2000/svg">
  <path d="M23.073,88.132C23.073,88.132 88.531,61.35 111.232,51.92C119.934,48.148 149.447,36.077 149.447,36.077C149.447,36.077 163.068,30.796 161.933,43.621C161.554,48.902 158.527,67.385 155.5,87.377C150.96,115.668 146.041,146.598 146.041,146.598C146.041,146.598 145.285,155.274 138.853,156.783C132.42,158.292 121.826,151.502 119.934,149.993C118.421,148.861 91.557,131.887 81.72,123.589C79.071,121.326 76.044,116.799 82.098,111.518C95.719,99.071 111.989,83.605 121.826,73.798C126.366,69.271 130.907,58.709 111.989,71.534C85.125,90.018 58.64,107.369 58.64,107.369C58.64,107.369 52.586,111.141 41.235,107.746C29.884,104.351 16.641,99.825 16.641,99.825C16.641,99.825 7.561,94.166 23.073,88.132V88.132Z" fill="#000000" fill-opacity="0.0" stroke="#000000" stroke-width="12"/>
</svg>
